src/assets/images/rightArrow.svg

<svg fill="none" height="20" viewBox="0 0 20 20" width="20" xmlns="http://www.w3.org/2000/svg"><path clip-rule="evenodd" d="m16.1895 10.9766h-14.60747c-.53906 0-.976561-.4375-.976561-.9766 0-.53906.437501-.97656.976561-.97656h14.60747l-2.6055-2.60547c-.3809-.38086-.3809-1 0-1.38086.3808-.38086 1-.38086 1.3808 0l4.1446 4.14258c.2253.22536.3173.53415.276.82761.0363.2891-.0564.5914-.278.813l-4.1426 4.1426c-.3808.3809-1 .3809-1.3808 0-.3809-.3809-.3809-1 0-1.3809z" fill="#000" fill-rule="evenodd"/></svg>

<svg width="20" height="20" viewBox="0 0 20 20" fill="none" xmlns="http://www.w3.org/2000/svg">
<path fill-rule="evenodd" clip-rule="evenodd" d="M16.1895 10.9766H1.58203C1.04297 10.9766 0.605469 10.5391 0.605469 10C0.605469 9.46094 1.04297 9.02344 1.58203 9.02344H16.1895L13.584 6.41797C13.2031 6.03711 13.2031 5.41797 13.584 5.03711C13.9648 4.65625 14.584 4.65625 14.9648 5.03711L19.1094 9.17969C19.3347 9.40505 19.4267 9.71384 19.3854 10.0073C19.4217 10.2964 19.329 10.5987 19.1074 10.8203L14.9648 14.9629C14.584 15.3438 13.9648 15.3438 13.584 14.9629C13.2031 14.582 13.2031 13.9629 13.584 13.582L16.1895 10.9766Z" fill="black"/>
</svg>
